packages/ui-icons/src/Basic/24/Pre5g_24.svg

<svg viewBox="0 0 32 32" xmlns="http://www.w3.org/2000/svg">
<g clip-path="url(#clip0_191_207)">
<path d="M24.9221 10C26.218 10 27.6137 10.5 28.5109 11.4C29.4081 12.3 29.9065 13.7 29.9065 15V17C29.9065 18.3 29.4081 19.7 28.5109 20.6C27.6137 21.5 26.218 22 24.9221 22H6.9782C5.68225 22 4.28661 21.5 3.38941 20.6C2.49222 19.7 1.99377 18.4 1.99377 17.1V14.9C1.99377 13.6 2.49222 12.3 3.38941 11.4C4.28661 10.5 5.68225 10 6.9782 10H24.9221ZM25.0218 8H6.87851C5.08412 8 3.28972 8.7 1.99377 10C0.697819 11.3 0 13 0 14.9V17.1C0 18.9 0.697819 20.7 1.99377 22C3.28972 23.3 4.98443 24 6.87851 24H25.1214C26.9158 24 28.7102 23.3 30.0062 22C31.3021 20.7 32 19 32 17.1V14.9C32 13.1 31.3021 11.3 30.0062 10C28.6105 8.7 26.8162 8 25.0218 8Z" />
<path d="M4 18.9999H5.30088V17.221C5.48983 17.6139 5.90407 17.8934 6.4782 17.8934C7.3721 17.8934 8.09157 17.2135 8.09157 15.8537V15.7933C8.09157 14.441 7.3721 13.7461 6.48547 13.7461C5.91134 13.7461 5.5189 14.0633 5.30088 14.441V13.8518H4V18.9999ZM6.02035 16.8584C5.54797 16.8584 5.26454 16.5185 5.26454 15.8462V15.7857C5.26454 15.1209 5.54797 14.7659 6.02035 14.7659C6.4782 14.7659 6.7689 15.0983 6.7689 15.7933V15.8537C6.7689 16.5034 6.50727 16.8584 6.02035 16.8584Z" />
<path d="M8.66992 17.8028H9.97077V15.9294C9.97077 15.2948 10.4069 15.0379 11.199 15.0606V13.799C10.6104 13.7915 10.2107 14.0483 9.97077 14.6376V13.8519H8.66992V17.8028Z" />
<path d="M13.6031 17.8934C14.7513 17.8934 15.4127 17.3872 15.5289 16.4958H14.308C14.2571 16.7602 14.0755 16.9642 13.6467 16.9642C13.1816 16.9642 12.8909 16.662 12.8545 16.1408H15.5289V15.7857C15.5289 14.3655 14.6351 13.7461 13.5958 13.7461C12.4476 13.7461 11.5391 14.5468 11.5391 15.8159V15.8764C11.5391 17.1682 12.4112 17.8934 13.6031 17.8934ZM12.8691 15.3778C12.9345 14.9019 13.2034 14.6375 13.5958 14.6375C14.0173 14.6375 14.2426 14.9019 14.2644 15.3778H12.8691Z" />
<path d="M17.8509 15.7286C17.8509 16.0976 17.5258 16.3967 17.1247 16.3967C16.7236 16.3967 16.3984 16.0976 16.3984 15.7286C16.3984 15.3596 16.7236 15.0605 17.1247 15.0605C17.5258 15.0605 17.8509 15.3596 17.8509 15.7286Z" />
<path d="M20.4787 18.0496C21.7394 18.0496 22.4987 17.3655 22.4987 16.3257C22.4987 15.2653 21.8996 14.6633 20.9872 14.6633C20.3673 14.6633 20.012 14.9164 19.824 15.1832L19.8518 14.1023H22.1782V13.0762H18.821L18.7165 15.9562H19.5663C19.7334 15.7647 19.9842 15.6073 20.3882 15.6073C20.82 15.6073 21.0638 15.8673 21.0638 16.3051C21.0638 16.6951 20.8757 16.9961 20.4648 16.9961C20.0051 16.9961 19.8658 16.7703 19.817 16.4283H18.5215C18.5563 17.345 19.1553 18.0496 20.4787 18.0496Z" />
<path d="M25.5612 18.0487C27.1702 18.0487 27.9991 17.1115 27.9991 15.8664V15.2644H25.6587V16.2427H26.5921C26.5642 16.6326 26.2995 16.9815 25.603 16.9815C24.7393 16.9815 24.4398 16.3658 24.4398 15.5722V15.5175C24.4398 14.635 24.8647 14.1014 25.5682 14.1014C26.0975 14.1014 26.397 14.3408 26.4667 14.7992H27.8806C27.7831 13.5268 26.7383 13 25.5612 13C24.0637 13 22.9492 14.0056 22.9492 15.497V15.5517C22.9492 17.0157 23.8686 18.0487 25.5612 18.0487Z" />
</g>
<defs>
<clipPath id="clip0_191_207">
<rect width="32" height="32" fill="white"/>
</clipPath>
</defs>
</svg>

<svg viewBox="0 0 32 32" xmlns="http://www.w3.org/2000/svg"><g clip-path="url(#a)"><path d="M24.922 10c1.296 0 2.692.5 3.589 1.4.897.9 1.396 2.3 1.396 3.6v2c0 1.3-.499 2.7-1.396 3.6-.897.9-2.293 1.4-3.589 1.4H6.978c-1.296 0-2.691-.5-3.589-1.4-.897-.9-1.395-2.2-1.395-3.5v-2.2c0-1.3.498-2.6 1.395-3.5.898-.9 2.293-1.4 3.59-1.4h17.943Zm.1-2H6.879c-1.795 0-3.59.7-4.885 2C.698 11.3 0 13 0 14.9v2.2c0 1.8.698 3.6 1.994 4.9 1.296 1.3 2.99 2 4.885 2H25.12c1.795 0 3.59-.7 4.885-2C31.302 20.7 32 19 32 17.1v-2.2c0-1.8-.698-3.6-1.994-4.9-1.396-1.3-3.19-2-4.984-2Z"/><path d="M4 19h1.3V17.22c.19.393.604.672 1.178.672.894 0 1.614-.68 1.614-2.04v-.06c0-1.352-.72-2.047-1.607-2.047-.574 0-.966.317-1.184.695v-.59H4V19Zm2.02-2.142c-.472 0-.755-.34-.755-1.012v-.06c0-.665.283-1.02.755-1.02.458 0 .749.332.749 1.027v.06c0 .65-.262 1.005-.749 1.005ZM8.67 17.803h1.3v-1.874c0-.634.437-.891 1.229-.868v-1.262c-.589-.008-.988.25-1.228.839v-.786H8.67v3.95ZM13.603 17.893c1.148 0 1.81-.506 1.926-1.397h-1.221c-.05.264-.232.468-.661.468-.465 0-.756-.302-.793-.823h2.675v-.355c0-1.42-.894-2.04-1.933-2.04-1.148 0-2.057.8-2.057 2.07v.06c0 1.292.872 2.017 2.064 2.017Zm-.734-2.515c.066-.476.334-.74.727-.74.421 0 .647.264.668.74H12.87ZM17.85 15.729c0 .369-.324.668-.725.668-.401 0-.727-.3-.727-.668 0-.37.326-.668.727-.668.4 0 .726.299.726.668ZM20.479 18.05c1.26 0 2.02-.684 2.02-1.724 0-1.06-.6-1.663-1.512-1.663-.62 0-.975.253-1.163.52l.028-1.08h2.326v-1.027h-3.357l-.105 2.88h.85c.167-.191.418-.349.822-.349.432 0 .676.26.676.698 0 .39-.188.691-.6.691-.459 0-.598-.226-.647-.568h-1.296c.035.917.634 1.622 1.958 1.622ZM25.561 18.049c1.61 0 2.438-.938 2.438-2.183v-.602h-2.34v.979h.933c-.028.39-.293.739-.989.739-.864 0-1.163-.616-1.163-1.41v-.054c0-.883.425-1.417 1.128-1.417.53 0 .829.24.899.698h1.414C27.783 13.527 26.738 13 25.56 13c-1.497 0-2.612 1.006-2.612 2.497v.055c0 1.464.92 2.497 2.612 2.497Z"/></g><defs><clipPath id="a"><path fill="#fff" d="M0 0h32v32H0z"/></clipPath></defs></svg>
